X:49
T:Christmas Day Ida Mornin’
O:Shetland Islands
S:Seth Austin to CoMandoList TOW
M:6/8
L:1/8
K:D Major
|: f2 d f3 | e2 d c2 A | B2 G d2 c | B2 G G3 | e2 f g2 f | e2 d c2 B |
ABA ABc | d3 d3 :||: e3 (4edef | g3 B3 | A2 F A2 A | B2 c d3 |
e3 (4edef | g3 B3 | A2 e d2 B | A3 A3 :||
